X:250
T: Jim's Red Car
M: 6/8
L: 1/8
S: B.Flaherty
Z: B.Black
R: jig
K: G
d | ged BAG | EGF EDB | DEG BAG | dBG ABd |
ged BAG | EGD GED | D2 G BdB | AFD G2 :|
A | DEG Bcd | ege dBG | DEG BAG | dBG A2 A |
DEG Bcd |1 ege dBG | DEG BdB | AFD G2 :|
|2 ege dBd | g2 g agf | gba g2 ||
